public/style-previews/swiss-modern.svg

<svg xmlns="http://www.w3.org/2000/svg" viewBox="0 0 960 540"><rect width="960" height="540" fill="#fff"/><g stroke="#ddd"><path d="M80 0v540M240 0v540M400 0v540M560 0v540M720 0v540M880 0v540"/><path d="M0 90h960M0 225h960M0 360h960M0 495h960"/></g><rect x="610" y="45" width="250" height="370" fill="#ff3300"/><text x="72" y="110" font-family="Arial,sans-serif" font-size="22" font-weight="700">01 / SYSTEMS</text><text x="72" y="260" font-family="Arial,sans-serif" font-size="100" font-weight="800">FORM</text><text x="72" y="355" font-family="Arial,sans-serif" font-size="100" font-weight="800">FOLLOWS</text><circle cx="800" cy="450" r="47" fill="#111"/></svg>

<svg xmlns="http://www.w3.org/2000/svg" viewBox="0 0 960 540" role="img" aria-label="Swiss Modern title slide preview" data-style-id="swiss-modern" data-preview-family="swiss-grid" data-contract-hash="9bf3d48f207d27233ad0f8f18934197d4e35367f2433c976233e1a019360618d" data-display-font="Archivo" data-body-font="Nunito" data-signature-elements="visible grid | asymmetric layouts | geometric shapes">
<title>Swiss Modern title slide preview</title>
<rect width="960" height="540" fill="#ffffff"/><g stroke="#d9d9d9"><path d="M80 0V540M240 0V540M400 0V540M560 0V540M720 0V540M880 0V540"/><path d="M0 90H960M0 225H960M0 360H960M0 495H960"/></g><rect x="600" y="0" width="280" height="360" fill="#ff3300"/><rect x="720" y="360" width="160" height="135" fill="#111111"/><circle cx="640" cy="428" r="68" fill="#f2f2f2" stroke="#000000" stroke-width="3"/><text x="70" y="70" fill="#000000" font-family="Nunito,sans-serif" font-size="14" font-weight="700" letter-spacing="2">01 / SYSTEMS</text><text x="70" y="238" fill="#000000" font-family="Archivo,sans-serif" font-size="96" font-weight="800" letter-spacing="-5"><tspan x="70">FORM</tspan><tspan x="70" dy="92">FOLLOWS</tspan></text><text x="622" y="86" fill="#ffffff" font-family="Nunito,sans-serif" font-size="15" font-weight="700">GRID / TYPE / SHAPE</text><text x="860" y="324" text-anchor="end" fill="#ffffff" font-family="Archivo,sans-serif" font-size="84" font-weight="800">01</text><text x="70" y="472" fill="#000000" font-family="Nunito,sans-serif" font-size="18">PRECISION MAKES SPACE FOR MEANING.</text>
</svg>
